;FLAVOR:Marlin
;TIME:17852
;Filament used: 12.4804m
;Layer height: 0.2
;MINX:46.5
;MINY:66.501
;MINZ:0.2
;MAXX:188.499
;MAXY:168.499
;MAXZ:17
;Generated with Cura_SteamEngine 5.0.0
M140 S50
M105
M190 S50
M104 S200
M105
M109 S200
M82 ;absolute extrusion mode
; Ender 3 Custom Start G-code
G92 E0 ; Reset Extruder
G28 ; Home all axes
G1 Z2.0 F3000 ; Move Z Axis up little to prevent scratching of Heat Bed
G1 X0.1 Y20 Z0.3 F5000.0 ; Move to start position
G1 X0.1 Y200.0 Z0.3 F1500.0 E15 ; Draw the first line
G1 X0.4 Y200.0 Z0.3 F5000.0 ; Move to side a little
G1 X0.4 Y20 Z0.3 F1500.0 E30 ; Draw the second line
G92 E0 ; Reset Extruder
G1 Z2.0 F3000 ; Move Z Axis up little to prevent scratching of Heat Bed
G1 X5 Y20 Z0.3 F5000.0 ; Move over to prevent blob squish
G92 E0
G92 E0
G1 F2700 E-5
;LAYER_COUNT:85
;LAYER:0
M107
G0 F6000 X52.7 Y69.874 Z0.2
G0 X46.681 Y80.205
;TYPE:SKIRT
G1 F2700 E0
G1 F1200 X46.762 Y79.701 E0.01698
G1 X47.014 Y78.539 E0.05652
G1 X47.151 Y78.039 E0.07377
G1 X47.41 Y77.217 E0.10243
G1 X47.616 Y76.669 E0.1219
G1 X47.77 Y76.29 E0.13551
G1 X48.197 Y75.365 E0.1694
G1 X48.431 Y74.914 E0.1863
G1 X48.988 Y73.961 E0.22301
G1 X49.258 Y73.548 E0.23942
G1 X49.925 Y72.634 E0.27705
G1 X50.266 Y72.214 E0.29505
G1 X51.07 Y71.327 E0.33487
G1 X51.44 Y70.961 E0.35218
G1 X52.289 Y70.204 E0.39001
G1 X52.7 Y69.874 E0.40754
G1 X53.594 Y69.227 E0.44424
G1 X54.025 Y68.947 E0.46134
G1 X55.082 Y68.34 E0.50188
G1 X55.564 Y68.098 E0.51982
G1 X56.633 Y67.631 E0.55862
G1 X57.131 Y67.444 E0.57631
G1 X58.259 Y67.089 E0.61564
G1 X58.749 Y66.963 E0.63247
G1 X59.807 Y66.745 E0.6684
G1 X60.318 Y66.666 E0.6856
G1 X61.436 Y66.551 E0.72298
G1 X62.041 Y66.52 E0.74313
G1 X63.005 Y66.501 E0.77519
G1 X171.983 Y66.502 E4.39982
G1 X172.658 Y66.512 E4.42227
G1 X173.663 Y66.559 E4.45573
G1 X174.809 Y66.684 E4.49408
G1 X175.309 Y66.765 E4.51092
G1 X176.435 Y67.008 E4.54924
G1 X176.939 Y67.145 E4.56661
G1 X177.783 Y67.41 E4.59603
G1 X178.453 Y67.667 E4.6199
G1 X178.943 Y67.873 E4.63758
G1 X179.87 Y68.314 E4.67172
G1 X180.212 Y68.497 E4.68462
G1 X181.046 Y68.992 E4.71688
G1 X181.457 Y69.261 E4.73322
G1 X182.346 Y69.908 E4.76979
G1 X182.752 Y70.236 E4.78714
G1 X183.638 Y71.036 E4.82685
G1 X184.011 Y71.411 E4.84444
G1 X184.779 Y72.268 E4.88272
G1 X185.11 Y72.679 E4.90027
G1 X185.766 Y73.584 E4.93744
G1 X186.052 Y74.024 E4.9549
G1 X186.655 Y75.075 E4.9952
G1 X186.892 Y75.546 E5.01274
G1 X187.352 Y76.592 E5.05074
G1 X187.543 Y77.096 E5.06867
G1 X187.907 Y78.239 E5.10857
G1 X188.034 Y78.73 E5.12543
G1 X188.256 Y79.811 E5.16214
G1 X188.335 Y80.324 E5.1794
G1 X188.449 Y81.434 E5.21651
G1 X188.48 Y82.038 E5.23663
G1 X188.499 Y83.005 E5.2688
G1 X188.498 Y151.983 E7.56302
G1 X188.488 Y152.656 E7.5854
G1 X188.441 Y153.661 E7.61887
G1 X188.317 Y154.805 E7.65714
G1 X188.236 Y155.306 E7.67402
G1 X187.992 Y156.435 E7.71244
G1 X187.855 Y156.939 E7.72981
G1 X187.489 Y158.048 E7.76865
G1 X187.293 Y158.551 E7.7866
G1 X186.823 Y159.595 E7.82468
G1 X186.585 Y160.057 E7.84197
G1 X186.01 Y161.044 E7.87996
G1 X185.739 Y161.458 E7.89642
G1 X185.077 Y162.364 E7.93374
G1 X184.737 Y162.783 E7.95169
G1 X183.931 Y163.672 E7.9916
G1 X183.56 Y164.039 E8.00896
G1 X182.716 Y164.792 E8.04658
G1 X182.313 Y165.116 E8.06377
G1 X181.416 Y165.766 E8.10062
G1 X180.976 Y166.052 E8.11807
G1 X179.917 Y166.66 E8.15869
G1 X179.435 Y166.902 E8.17663
G1 X178.373 Y167.366 E8.21517
G1 X177.876 Y167.553 E8.23283
G1 X176.741 Y167.911 E8.27242
G1 X176.251 Y168.037 E8.28925
G1 X175.193 Y168.255 E8.32517
G1 X174.682 Y168.334 E8.34237
G1 X173.564 Y168.449 E8.37975
G1 X172.959 Y168.48 E8.3999
G1 X171.995 Y168.499 E8.43197
G1 X63.017 Y168.498 E12.05659
G1 X62.343 Y168.488 E12.07901
G1 X61.338 Y168.441 E12.11248
G1 X60.191 Y168.316 E12.15085
G1 X59.691 Y168.235 E12.1677
G1 X58.57 Y167.993 E12.20584
G1 X58.065 Y167.856 E12.22325
G1 X57.193 Y167.581 E12.25366
G1 X56.557 Y167.338 E12.2763
G1 X56.068 Y167.133 E12.29394
G1 X55.108 Y166.674 E12.32933
G1 X54.755 Y166.484 E12.34266
G1 X53.935 Y165.996 E12.3744
G1 X53.534 Y165.733 E12.39035
G1 X52.636 Y165.077 E12.42734
G1 X52.217 Y164.737 E12.44528
G1 X51.338 Y163.941 E12.48473
G1 X50.971 Y163.571 E12.50206
G1 X50.193 Y162.699 E12.54093
G1 X49.864 Y162.288 E12.55844
G1 X49.209 Y161.378 E12.59573
G1 X48.927 Y160.941 E12.61303
G1 X48.352 Y159.938 E12.65148
G1 X48.116 Y159.471 E12.66888
G1 X47.642 Y158.393 E12.70805
G1 X47.453 Y157.892 E12.72586
G1 X47.103 Y156.793 E12.76422
G1 X46.973 Y156.296 E12.78131
G1 X46.741 Y155.172 E12.81948
G1 X46.663 Y154.661 E12.83668
G1 X46.552 Y153.566 E12.87328
G1 X46.507 Y152.523 E12.908
G1 X46.5 Y151.87 E12.92972
G1 X46.502 Y83.018 E15.21975
G1 X46.512 Y82.339 E15.24234
G1 X46.528 Y81.883 E15.25751
G1 X46.559 Y81.332 E15.27587
G1 X46.681 Y80.205 E15.31357
G0 F6000 X46.902 Y83.024
G1 F1200 X46.912 Y82.345 E15.33616
G1 X46.959 Y81.355 E15.36912
G1 X47.076 Y80.268 E15.40548
G1 X47.157 Y79.764 E15.42246
G1 X47.4 Y78.645 E15.46055
G1 X47.537 Y78.145 E15.47779
G1 X47.788 Y77.348 E15.50558
G1 X47.987 Y76.82 E15.52435
G1 X48.141 Y76.441 E15.53796
G1 X48.552 Y75.549 E15.57062
G1 X48.786 Y75.098 E15.58752
G1 X49.323 Y74.18 E15.6229
G1 X49.593 Y73.767 E15.63931
G1 X50.236 Y72.886 E15.67558
G1 X50.577 Y72.466 E15.69358
G1 X51.352 Y71.611 E15.73196
G1 X51.722 Y71.245 E15.74927
G1 X52.54 Y70.516 E15.78571
G1 X52.951 Y70.186 E15.80324
G1 X53.812 Y69.562 E15.83861
G1 X54.243 Y69.282 E15.8557
G1 X55.262 Y68.698 E15.89477
G1 X55.744 Y68.456 E15.91271
G1 X56.774 Y68.006 E15.95009
G1 X57.272 Y67.819 E15.96778
G1 X58.358 Y67.476 E16.00566
G1 X58.848 Y67.35 E16.02249
G1 X59.868 Y67.14 E16.05713
G1 X60.379 Y67.061 E16.07433
G1 X61.457 Y66.951 E16.11037
G1 X62.483 Y66.907 E16.14452
G1 X63.13 Y66.9 E16.16604
G1 X171.977 Y66.902 E19.78631
G1 X172.652 Y66.912 E19.80876
G1 X173.086 Y66.927 E19.82321
G1 X173.641 Y66.958 E19.84169
G1 X174.745 Y67.078 E19.87863
G1 X175.245 Y67.159 E19.89548
G1 X176.33 Y67.394 E19.9324
G1 X176.834 Y67.531 E19.94977
G1 X177.652 Y67.788 E19.97829
G1 X178.298 Y68.035 E20.00129
G1 X178.788 Y68.241 E20.01897
G1 X179.681 Y68.667 E20.05188
G1 X180.023 Y68.85 E20.06478
G1 X180.827 Y69.327 E20.09587
G1 X181.238 Y69.596 E20.11221
G1 X182.094 Y70.22 E20.14744
G1 X182.5 Y70.548 E20.1648
G1 X183.354 Y71.318 E20.20305
G1 X183.727 Y71.693 E20.22064
G1 X184.468 Y72.519 E20.25755
G1 X184.799 Y72.93 E20.2751
G1 X185.431 Y73.802 E20.31092
G1 X185.717 Y74.242 E20.32837
G1 X186.298 Y75.254 E20.36718
G1 X186.535 Y75.725 E20.38472
G1 X186.978 Y76.734 E20.42137
G1 X187.169 Y77.238 E20.4393
G1 X187.519 Y78.34 E20.47776
G1 X187.646 Y78.831 E20.49462
G1 X187.861 Y79.872 E20.52998
G1 X187.94 Y80.385 E20.54724
G1 X188.049 Y81.455 E20.58302
G1 X188.08 Y82.059 E20.60313
G1 X188.099 Y83.01 E20.63477
G1 X188.098 Y151.977 E22.92862
G1 X188.088 Y152.65 E22.95101
G1 X188.073 Y153.083 E22.96542
G1 X188.042 Y153.639 E22.98394
G1 X187.922 Y154.741 E23.02081
G1 X187.841 Y155.242 E23.03769
G1 X187.606 Y156.33 E23.07471
G1 X187.469 Y156.834 E23.09208
G1 X187.117 Y157.903 E23.12951
G1 X186.921 Y158.406 E23.14747
G1 X186.467 Y159.411 E23.18415
G1 X186.229 Y159.873 E23.20143
G1 X185.675 Y160.824 E23.23804
G1 X185.404 Y161.238 E23.2545
G1 X184.766 Y162.112 E23.29049
G1 X184.426 Y162.531 E23.30843
G1 X183.65 Y163.388 E23.34689
G1 X183.279 Y163.755 E23.36424
G1 X182.466 Y164.48 E23.40047
G1 X182.063 Y164.804 E23.41767
G1 X181.198 Y165.431 E23.4532
G1 X180.758 Y165.717 E23.47066
G1 X179.737 Y166.302 E23.5098
G1 X179.255 Y166.544 E23.52774
G1 X178.232 Y166.992 E23.56488
G1 X177.735 Y167.179 E23.58254
G1 X176.642 Y167.524 E23.62066
G1 X176.152 Y167.65 E23.63749
G1 X175.132 Y167.86 E23.67213
G1 X174.621 Y167.939 E23.68933
G1 X173.543 Y168.049 E23.72537
G1 X172.517 Y168.093 E23.75952
G1 X171.87 Y168.1 E23.78104
G1 X63.023 Y168.098 E27.40131
G1 X62.349 Y168.088 E27.42373
G1 X61.916 Y168.073 E27.43814
G1 X61.36 Y168.042 E27.45666
G1 X60.255 Y167.922 E27.49363
G1 X59.755 Y167.841 E27.51048
G1 X58.675 Y167.607 E27.54723
G1 X58.17 Y167.47 E27.56463
G1 X57.325 Y167.204 E27.5941
G1 X56.712 Y166.969 E27.61593
G1 X56.223 Y166.764 E27.63357
G1 X55.297 Y166.322 E27.6677
G1 X54.944 Y166.132 E27.68103
G1 X54.155 Y165.662 E27.71158
G1 X53.754 Y165.399 E27.72753
G1 X52.888 Y164.766 E27.7632
G1 X52.469 Y164.426 E27.78115
G1 X51.622 Y163.66 E27.81913
G1 X51.255 Y163.29 E27.83647
G1 X50.506 Y162.449 E27.87392
G1 X50.177 Y162.038 E27.89143
G1 X49.545 Y161.161 E27.92739
G1 X49.263 Y160.724 E27.94469
G1 X48.709 Y159.758 E27.98172
G1 X48.473 Y159.291 E27.99913
G1 X48.016 Y158.251 E28.03691
G1 X47.827 Y157.75 E28.05472
G1 X47.49 Y156.691 E28.09168
G1 X47.36 Y156.194 E28.10877
G1 X47.136 Y155.111 E28.14555
G1 X47.058 Y154.6 E28.16274
G1 X46.951 Y153.545 E28.19801
G1 X46.92 Y152.942 E28.2181
G1 X46.901 Y151.99 E28.24977
G1 X46.902 Y83.024 E30.54358
G0 F6000 X47.302 Y83.03
G1 F1200 X47.312 Y82.351 E30.56617
G1 X47.358 Y81.377 E30.5986
G1 X47.471 Y80.331 E30.6336
G1 X47.552 Y79.827 E30.65057
G1 X47.786 Y78.751 E30.6872
G1 X47.923 Y78.251 E30.70444
G1 X48.166 Y77.478 E30.73139
G1 X48.357 Y76.97 E30.74944
G1 X48.511 Y76.591 E30.76305
G1 X48.907 Y75.733 E30.79448
G1 X49.141 Y75.282 E30.81138
G1 X49.658 Y74.399 E30.84541
G1 X49.928 Y73.986 E30.86182
G1 X50.546 Y73.138 E30.89672
G1 X50.887 Y72.718 E30.91472
G1 X51.633 Y71.895 E30.95166
G1 X52.003 Y71.529 E30.96897
G1 X52.79 Y70.827 E31.00405
G1 X53.201 Y70.497 E31.02158
G1 X54.03 Y69.898 E31.05559
G1 X54.461 Y69.618 E31.07269
G1 X55.441 Y69.055 E31.11028
G1 X55.923 Y68.813 E31.12822
G1 X56.914 Y68.38 E31.16419
G1 X57.412 Y68.193 E31.18188
G1 X58.458 Y67.863 E31.21836
G1 X58.948 Y67.737 E31.23519
G1 X59.93 Y67.536 E31.26853
G1 X60.441 Y67.457 E31.28573
G1 X61.477 Y67.35 E31.32037
G1 X62.082 Y67.319 E31.34051
G1 X63.13 Y67.3 E31.37538
G1 X171.971 Y67.302 E34.99544
G1 X172.646 Y67.312 E35.0179
G1 X173.619 Y67.358 E35.05029
G1 X174.681 Y67.473 E35.08582
G1 X175.181 Y67.554 E35.10267
G1 X176.226 Y67.78 E35.13823
G1 X176.73 Y67.917 E35.1556
G1 X177.522 Y68.166 E35.18322
G1 X178.143 Y68.404 E35.20533
G1 X178.633 Y68.61 E35.22301
G1 X179.492 Y69.02 E35.25467
G1 X179.834 Y69.203 E35.26757
G1 X180.608 Y69.661 E35.29749
G1 X181.019 Y69.93 E35.31382
G1 X181.843 Y70.531 E35.34774
G1 X182.249 Y70.859 E35.3651
G1 X183.071 Y71.6 E35.40191
G1 X183.444 Y71.975 E35.41951
G1 X184.156 Y72.77 E35.455
G1 X184.487 Y73.181 E35.47255
G1 X185.095 Y74.02 E35.50702
G1 X185.381 Y74.46 E35.52447
G1 X185.941 Y75.434 E35.56184
G1 X186.178 Y75.905 E35.57937
G1 X186.604 Y76.875 E35.61461
G1 X186.795 Y77.379 E35.63254
G1 X187.132 Y78.44 E35.66956
G1 X187.259 Y78.931 E35.68643
G1 X187.465 Y79.933 E35.72046
G1 X187.544 Y80.446 E35.73772
G1 X187.65 Y81.475 E35.77213
G1 X187.681 Y82.079 E35.79224
G1 X187.7 Y83.13 E35.8272
G1 X187.698 Y151.972 E38.1169
G1 X187.688 Y152.645 E38.13928
G1 X187.642 Y153.617 E38.17165
G1 X187.527 Y154.677 E38.20711
G1 X187.446 Y155.178 E38.22399
G1 X187.22 Y156.226 E38.25965
G1 X187.083 Y156.73 E38.27702
G1 X186.744 Y157.757 E38.31299
G1 X186.548 Y158.26 E38.33095
G1 X186.112 Y159.228 E38.36626
G1 X185.874 Y159.69 E38.38354
G1 X185.34 Y160.605 E38.41878
G1 X185.069 Y161.019 E38.43524
G1 X184.455 Y161.86 E38.46987
G1 X184.115 Y162.279 E38.48782
G1 X183.368 Y163.103 E38.52481
G1 X182.997 Y163.47 E38.54217
G1 X182.215 Y164.168 E38.57703
G1 X181.812 Y164.492 E38.59423
G1 X180.98 Y165.095 E38.6284
G1 X180.54 Y165.381 E38.64586
G1 X179.558 Y165.945 E38.68352
G1 X179.076 Y166.187 E38.70146
G1 X178.091 Y166.618 E38.73722
G1 X177.594 Y166.805 E38.75488
G1 X176.542 Y167.137 E38.79157
G1 X176.052 Y167.263 E38.8084
G1 X175.07 Y167.464 E38.84174
G1 X174.559 Y167.543 E38.85894
G1 X173.523 Y167.65 E38.89358
G1 X172.918 Y167.681 E38.91373
G1 X171.87 Y167.7 E38.94859
G1 X63.029 Y167.698 E42.56866
G1 X62.355 Y167.688 E42.59108
G1 X61.382 Y167.642 E42.62347
G1 X60.319 Y167.527 E42.65904
G1 X59.819 Y167.446 E42.67588
G1 X58.779 Y167.221 E42.71127
G1 X58.274 Y167.084 E42.72868
G1 X57.456 Y166.826 E42.75721
G1 X56.866 Y166.6 E42.77822
G1 X56.377 Y166.395 E42.79586
G1 X55.487 Y165.97 E42.82866
G1 X55.134 Y165.78 E42.84199
G1 X54.374 Y165.327 E42.87142
G1 X53.973 Y165.064 E42.88737
G1 X53.14 Y164.455 E42.92169
G1 X52.721 Y164.115 E42.93964
G1 X51.906 Y163.378 E42.97618
G1 X51.539 Y163.008 E42.99352
G1 X50.818 Y162.199 E43.02956
G1 X50.489 Y161.788 E43.04707
G1 X49.882 Y160.945 E43.08162
G1 X49.6 Y160.508 E43.09892
G1 X49.066 Y159.578 E43.13459
G1 X48.83 Y159.111 E43.15199
G1 X48.391 Y158.11 E43.18834
G1 X48.202 Y157.609 E43.20615
G1 X47.877 Y156.59 E43.24173
G1 X47.747 Y156.093 E43.25881
G1 X47.532 Y155.051 E43.2942
G1 X47.454 Y154.54 E43.31139
G1 X47.35 Y153.525 E43.34533
G1 X47.319 Y152.922 E43.36541
G1 X47.3 Y151.87 E43.40041
G1 X47.302 Y83.03 E45.69004
G1 F2700 E40.69004
;MESH:SensorCO2_BackV3.stl
G0 F6000 X75.266 Y116.316
G0 X75.199 Y117.519
G0 X75.345 Y118.305
G0 X75.75 Y118.993
G0 X76.369 Y119.502
G0 X76.793 Y119.652
G0 X77.574 Y119.856
G1 F2700 E45.69004
G0 F6000 X77.535 Y119.449
;TYPE:WALL-OUTER
G1 F1200 X77.192 Y119.424 E45.70147
G1 X76.865 Y119.341 E45.71269
G1 X76.555 Y119.205 E45.72395
G1 X76.275 Y119.018 E45.73515
G1 X76.03 Y118.779 E45.74654
G1 X75.828 Y118.503 E45.75791
G1 X75.681 Y118.198 E45.76917
G1 X75.588 Y117.874 E45.78039
G1 X75.551 Y117.537 E45.79166
G1 X75.551 Y117.519 E45.79226
G1 X75.576 Y117.192 E45.80317
G1 X75.658 Y116.866 E45.81435
G1 X75.795 Y116.555 E45.82565
G1 X75.982 Y116.275 E45.83685
G1 X76.221 Y116.03 E45.84823
G1 X76.497 Y115.828 E45.85961
G1 X76.801 Y115.681 E45.87084
G1 X77.125 Y115.588 E45.88205
G1 X77.465 Y115.551 E45.89343
G1 X77.808 Y115.576 E45.90487
G1 X78.135 Y115.659 E45.91609
G1 X78.445 Y115.795 E45.92735
G1 X78.725 Y115.982 E45.93854
G1 X78.97 Y116.221 E45.94993
G1 X79.172 Y116.497 E45.9613
G1 X79.318 Y116.799 E45.97246
G1 X79.412 Y117.125 E45.98375
G1 X79.449 Y117.463 E45.99505
G1 X79.424 Y117.808 E46.00656
G1 X79.342 Y118.134 E46.01774
G1 X79.205 Y118.445 E46.02904
G1 X79.018 Y118.725 E46.04024
G1 X78.779 Y118.97 E46.05163
G1 X78.503 Y119.172 E46.063
G1 X78.199 Y119.319 E46.07423
G1 X77.875 Y119.412 E46.08544
G1 X77.535 Y119.449 E46.09682
G0 F6000 X77.574 Y119.847
;TYPE:WALL-INNER
G1 F1200 X77.16 Y119.823 E46.11061
G1 X76.763 Y119.728 E46.12419
G1 X76.391 Y119.57 E46.13763
G1 X76.05 Y119.349 E46.15115
G1 X75.748 Y119.063 E46.16498
G1 X75.504 Y118.737 E46.17852
G1 X75.319 Y118.368 E46.19225
G1 X75.202 Y117.981 E46.2057
G1 X75.153 Y117.577 E46.21924
G1 X75.151 Y117.523 E46.22103
G1 X75.177 Y117.16 E46.23314
G1 X75.271 Y116.765 E46.24664
G1 X75.431 Y116.391 E46.26017
G1 X75.651 Y116.05 E46.27367
G1 X75.937 Y115.748 E46.2875
G1 X76.263 Y115.504 E46.30105
G1 X76.63 Y115.319 E46.31472
G1 X77.018 Y115.202 E46.3282
G1 X77.426 Y115.153 E46.34186
G1 X77.84 Y115.177 E46.35566
G1 X78.237 Y115.272 E46.36923
G1 X78.609 Y115.43 E46.38268
G1 X78.95 Y115.651 E46.39619
G1 X79.252 Y115.937 E46.41003
G1 X79.496 Y116.263 E46.42357
G1 X79.68 Y116.628 E46.43716
G1 X79.797 Y117.017 E46.45067
G1 X79.847 Y117.424 E46.46431
G1 X79.823 Y117.84 E46.47817
G1 X79.729 Y118.235 E46.49168
G1 X79.569 Y118.609 E46.50521
G1 X79.349 Y118.95 E46.5187
G1 X79.063 Y119.252 E46.53254
G1 X78.737 Y119.496 E46.54608
G1 X78.37 Y119.681 E46.55975
G1 X77.982 Y119.798 E46.57323
G1 X77.574 Y119.847 E46.5869
G1 F2700 E41.5869
G0 F6000 X77.574 Y119.856
G0 X76.717 Y119.902
G0 X76.717 Y156.699
G0 X62.488 Y156.89
G1 F2700 E46.5869
G0 F6000 X62.481 Y157.299
;TYPE:WALL-OUTER
G1 F1200 X172.493 Y157.3 E50.24591
G1 X172.974 Y157.274 E50.26193
G1 X173.471 Y157.198 E50.27866
G1 X173.945 Y157.074 E50.29495
G1 X174.428 Y156.893 E50.31211
G1 X174.878 Y156.667 E50.32886
G1 X175.299 Y156.396 E50.34551
G1 X175.693 Y156.08 E50.36231
G1 X176.049 Y155.728 E50.37896
G1 X176.367 Y155.339 E50.39567
G1 X176.644 Y154.919 E50.4124
G1 X176.873 Y154.473 E50.42908
G1 X177.061 Y153.992 E50.44626
G1 X177.188 Y153.521 E50.46248
G1 X177.269 Y153.025 E50.4792
G1 X177.299 Y152.519 E50.49605
G1 X177.299 Y82.507 E52.82466
G1 X177.274 Y82.024 E52.84075
G1 X177.198 Y81.527 E52.85747
G1 X177.074 Y81.055 E52.8737
G1 X176.893 Y80.572 E52.89086
G1 X176.667 Y80.122 E52.90761
G1 X176.396 Y79.701 E52.92426
